frontend/public/svg/arrows/arrow-circle-down.svg

<svg width="155" height="150" viewBox="0 0 155 150" fill="none" xmlns="http://www.w3.org/2000/svg">
<path d="M3.49704 54.1884C-3.29737 80.8928 2.65228 104.451 21.1932 124.216C21.6762 124.727 22.1678 125.238 22.6601 125.729C32.6193 135.689 45.0248 141.838 54.8548 146.118C59.073 147.96 80.721 150.197 86.5775 149.325C121.385 144.127 144.291 124.495 152.269 91.6509C153.793 85.2172 154.551 78.626 154.53 72.0145C154.567 56.4389 148.009 38.3319 134.485 24.7713C133.093 23.6201 131.705 22.4276 130.364 21.2718C127.454 18.7705 124.446 16.1806 121.3 13.9713C97.2641 -2.94511 72.2911 -3.03962 47.0759 5.9312C24.2471 14.0481 9.58786 30.2872 3.49704 54.1884ZM47.1736 13.9273C69.2975 4.73395 91.4955 3.11148 113.145 16.8808C117.104 19.4011 127.658 27.931 129.32 29.2121L129.427 29.2908L129.515 29.3881C137.961 38.3458 147.633 54.7227 147.419 71.5591C147.349 78.7578 146.375 85.9192 144.519 92.875C139.019 112.864 125.871 127.432 104.323 137.396C82.4177 147.885 51.0027 137.281 42.6442 131.764C33.4055 125.448 25.3218 117.59 18.7464 108.534C8.43402 93.9329 6.11974 72.9466 11.6579 53.7612C14.2518 44.9025 18.7845 36.7321 24.9274 29.8423C31.0703 22.9526 38.6693 17.5161 47.1736 13.9273Z" fill="black"/>
<path d="M47.4534 89.0431C47.4411 89.5591 47.5903 90.0659 47.88 90.493C48.3265 90.9666 48.8215 91.3921 49.3568 91.7624C49.7607 92.0486 50.1452 92.3615 50.5074 92.699C53.3165 95.4455 56.1199 98.1982 58.9177 100.957C62.5494 104.531 66.1877 108.098 69.8326 111.659C71.3542 113.241 73.0296 114.667 74.8339 115.918C75.8222 116.622 76.9947 117.023 78.2075 117.071C79.6409 117.071 81.0336 116.389 82.5321 115.011C85.0563 112.689 87.7906 110.257 90.8905 107.577C93.1474 105.626 95.4127 103.684 97.6862 101.751C100.149 99.6509 102.606 97.5426 105.058 95.4261C106.044 94.6177 106.906 93.6698 107.618 92.6123C108.015 91.9789 108.066 90.6112 107.574 90.0802C107.225 89.7888 106.806 89.5925 106.359 89.5104C105.911 89.4283 105.45 89.4631 105.02 89.6115C103.971 90.1837 102.983 90.8626 102.073 91.6371C101.857 91.8077 101.643 91.979 101.426 92.1463C98.2848 94.5827 95.1456 97.021 92.0083 99.4612C88.3511 102.305 84.6927 105.146 81.0329 107.984C80.7071 108.218 80.3625 108.424 80.0025 108.6L79.7472 108.737C79.8242 107.169 79.9021 105.626 79.9809 104.108C80.1725 100.353 80.3537 96.8056 80.4915 93.2089C80.7836 85.5671 81.0671 74.4042 81.3408 63.6081C81.5777 54.315 81.8002 45.5372 82.0227 39.0906C82.0548 37.8272 81.9654 36.5636 81.7556 35.3173C81.4537 33.414 80.4751 32.4497 78.8467 32.4497H78.8434C77.0241 32.4497 75.9221 33.5288 75.7409 35.484C75.691 36.0226 75.6392 36.5624 75.5854 37.1032C75.3681 39.321 75.1437 41.6136 75.1141 43.8786C74.9966 52.915 74.9054 65.7071 74.8168 78.0738C74.7512 87.6564 74.6855 96.7066 74.61 103.642C74.5917 104.147 74.5411 104.649 74.4584 105.147C74.4433 105.257 74.4269 105.37 74.4112 105.487L73.9308 105.044C73.4011 104.556 72.9607 104.15 72.5367 103.727C66.4332 97.734 59.4365 92.7249 51.7964 88.8784L51.5621 88.7563C50.9001 88.3757 50.195 88.0756 49.4618 87.8623C49.027 87.7924 48.5819 87.8223 48.1603 87.9497C47.9903 87.9877 47.8209 88.0259 47.6549 88.0489L47.3103 88.0955L47.376 88.4374C47.412 88.6379 47.4378 88.84 47.4534 89.0431Z" fill="black"/>
</svg>

<svg xmlns="http://www.w3.org/2000/svg" width="155" height="150" fill="none" viewBox="0 0 155 150"><path fill="#000" d="M3.497 54.188c-6.794 26.705-.845 50.263 17.696 70.028.483.511.975 1.022 1.467 1.513 9.96 9.96 22.365 16.109 32.195 20.389 4.218 1.842 25.866 4.079 31.723 3.207 34.807-5.198 57.713-24.83 65.691-57.674a84 84 0 0 0 2.261-19.636c.037-15.576-6.521-33.683-20.045-47.244a267 267 0 0 1-4.121-3.5c-2.91-2.5-5.918-5.09-9.064-7.3-24.036-16.916-49.009-17.01-74.224-8.04C24.247 14.048 9.588 30.287 3.497 54.188m43.677-40.26C69.298 4.733 91.496 3.11 113.145 16.88c3.959 2.52 14.513 11.05 16.175 12.331l.107.079.088.097c8.446 8.958 18.118 25.335 17.904 42.171a86 86 0 0 1-2.9 21.316c-5.5 19.989-18.648 34.557-40.196 44.521-21.905 10.489-53.32-.115-61.679-5.632a97.6 97.6 0 0 1-23.898-23.23C8.434 93.933 6.12 72.947 11.658 53.761a62.21 62.21 0 0 1 35.516-39.834"/><path fill="#000" d="M47.453 89.043a2.5 2.5 0 0 0 .427 1.45q.672.713 1.477 1.27.606.43 1.15.936 4.215 4.12 8.41 8.258 5.447 5.36 10.916 10.702a33 33 0 0 0 5 4.259 6.24 6.24 0 0 0 3.374 1.153c1.434 0 2.827-.682 4.325-2.06a362 362 0 0 1 8.359-7.434q3.385-2.926 6.795-5.826 3.694-3.15 7.372-6.325a13.1 13.1 0 0 0 2.56-2.814c.397-.633.448-2-.044-2.532a2.64 2.64 0 0 0-2.554-.468 17.4 17.4 0 0 0-2.947 2.025q-.323.256-.647.51a8789 8789 0 0 0-9.418 7.314q-5.485 4.266-10.975 8.523-.49.352-1.03.616l-.256.137q.115-2.352.234-4.629c.192-3.755.373-7.302.51-10.9.293-7.64.576-18.804.85-29.6.237-9.293.46-18.07.682-24.517a19.7 19.7 0 0 0-.267-3.774c-.302-1.903-1.28-2.867-2.91-2.867h-.003c-1.819 0-2.92 1.079-3.102 3.034q-.075.808-.156 1.62c-.217 2.217-.441 4.51-.47 6.775-.118 9.036-.21 21.828-.298 34.195-.066 9.582-.131 18.633-.207 25.568a12 12 0 0 1-.152 1.505l-.047.34-.48-.443c-.53-.488-.97-.894-1.394-1.317a82.7 82.7 0 0 0-20.74-14.849l-.235-.122a9.6 9.6 0 0 0-2.1-.894c-.435-.07-.88-.04-1.302.088-.17.038-.34.076-.505.099l-.345.046.066.342q.054.3.077.606"/></svg>
